packages/katcn/src/icons/svg/rewind.svg

<svg width="24" height="25" viewBox="0 0 24 25" fill="none" xmlns="http://www.w3.org/2000/svg">
<path fill-rule="evenodd" clip-rule="evenodd" d="M7.25384 2.77526C6.09994 1.98931 4.7547 2.07296 3.73333 2.6893C2.7187 3.30158 2 4.44571 2 5.80799V18.608C2 21.3267 4.90808 23.1072 7.23 21.656L7.2429 21.6478L17.1429 15.2478L17.1547 15.24C19.2484 13.8442 19.2484 10.5718 17.1547 9.17594L7.25384 2.77526ZM4.76666 4.40167C4.3313 4.6644 4 5.17026 4 5.80799V18.608C4 19.8866 5.28642 20.5061 6.16438 19.9635L16.0504 13.5725C16.9499 12.9672 16.9499 11.4488 16.0504 10.8434L6.1571 4.44778C6.14915 4.44265 6.14127 4.43739 6.13347 4.43203C5.69019 4.12727 5.19156 4.14527 4.76666 4.40167Z" fill="black"/>
<path fill-rule="evenodd" clip-rule="evenodd" d="M21 2.20801C21.5523 2.20801 22 2.65572 22 3.20801V21.208C22 21.7603 21.5523 22.208 21 22.208C20.4477 22.208 20 21.7603 20 21.208V3.20801C20 2.65572 20.4477 2.20801 21 2.20801Z" fill="black"/>
</svg>

<svg xmlns="http://www.w3.org/2000/svg" fill="none" viewBox="0 0 24 25"><path fill="#000" fill-rule="evenodd" d="M7.254 2.775c-1.154-.786-2.5-.702-3.52-.086A3.62 3.62 0 0 0 2 5.808v12.8c0 2.719 2.908 4.5 5.23 3.048l.013-.008 9.9-6.4.012-.008c2.093-1.396 2.093-4.668 0-6.064zM4.767 4.402A1.62 1.62 0 0 0 4 5.808v12.8c0 1.279 1.286 1.898 2.164 1.355l9.886-6.39c.9-.606.9-2.124 0-2.73L6.157 4.448l-.024-.016c-.443-.305-.941-.287-1.366-.03M21 2.208a1 1 0 0 1 1 1v18a1 1 0 1 1-2 0v-18a1 1 0 0 1 1-1" clip-rule="evenodd"/></svg>
